X: 14
M: 2/4
L: 1/16
K: D
V: 1
a2 | a3ff3d | (d3A).A2.A2 | d2f2e2g2 | (fefg) f2a2 | a3ff3d | (d3A).A2.A2 | d3f egec | d4 D2 :|
|: d2 |\
[d4D4].A3.f | [d4D4].A3.f | .d2.f2.A2.f2 | [d4D4] (A/B/c/d/ e/f/g/a/) |\
a3ff3d | d3AA2A2 | d3f egec | d4 D2 :|
|: D2 |\
a3ff3d | d3AA2A2 | d3f egec | d4 D2 :|
|: D2 |\
V: 2 clef=bass middle=d
|: z2 |\
d'4d4 | d'2d2f2a2 | d4a4 | d'2a2f2a2 |\
d'4d4 | d'2d2f2a2 | f2d2a2A2 | d2A2D2 :|
|: z2 |\
[d'6a6f6d6]z2 | [d'6a6f6d6]z2 | [d'4d4][a4A4] | d4D4 |\
d'4d4 | d'2d2f2a2 | f2d2a2A2 | d2A2D2 :|
|: z2 |\
d4a4 | d'4a4 | d2a2f2a2 | f2d2f2a2 |\
d'4d4 | d'2d2f2a2 | f2d2a2A2 | d2A2D2 :|
|: z2 |\
d4a4 | d'4a4 | d2a2f2a2 | f2d2f2d2 |\
[g4G4][a4A4] | [b4B4] [c'4c4] | [d'4d4] [a4A4] | d2A2D2 :|


